src/categories-icons-sprite/categories/svg-cat-anim-food.svg

<svg width="34" height="22" viewBox="0 0 34 22" fill="none" xmlns="http://www.w3.org/2000/svg">
<path class="p-E08344" d="M26.3208 0.921324C25.4832 0.921324 23.7935 2.07148 23.1344 2.48833C22.6085 2.821 21.9198 3.61747 21.5244 3.13679C20.4059 1.77636 18.71 0 16.8112 0C14.9125 0 13.2166 1.77636 12.098 3.13672C11.7026 3.61741 10.1053 1.91224 9.5793 1.57957C8.92019 1.16272 8.13928 0.921258 7.30162 0.921258C4.94344 0.921324 3.94043 2.83303 3.94043 5.19121V11.3521H29.682V5.19121C29.682 2.83303 28.679 0.921324 26.3208 0.921324Z" fill="#B9DFFC"/>
<path class="p-D6702B" d="M26.3201 0.921258C25.4825 0.921258 23.7928 2.07141 23.1337 2.48827C22.6078 2.82094 21.9191 2.70871 21.5238 2.22803C20.4052 0.867663 18.7093 0 16.8105 0V11.3521H29.6814V5.19121C29.6814 2.83303 28.6783 0.921258 26.3201 0.921258Z" fill="#A1D1FD"/>
<path class="p-00C3FF" d="M29.6817 5.18933C29.6817 6.52191 28.4078 7.8899 26.1865 8.94261C23.6987 10.1217 20.369 10.7711 16.8108 10.7711C13.2527 10.7711 9.923 10.1217 7.43519 8.94261C5.21392 7.8899 3.94004 6.52185 3.94004 5.18933C2.83243 5.07283 1.81564 5.81133 1.58383 6.90068L0 14.3448V14.4484C0 16.6266 1.86193 18.5988 5.24282 20.0016C8.34882 21.2904 12.457 22.0002 16.8108 22.0002C21.1647 22.0002 25.2729 21.2904 28.3789 20.0016C31.7598 18.5987 33.6217 16.6266 33.6217 14.4484V14.3448L32.0379 6.90068C31.8061 5.81133 30.7893 5.07277 29.6817 5.18933Z" fill="#58ADE5"/>
<path class="p-00AAF0" d="M32.0376 6.90067C31.8058 5.81132 30.789 5.07282 29.6814 5.18931C29.6814 6.5219 28.4075 7.88989 26.1862 8.9426C23.6984 10.1217 20.3687 10.771 16.8105 10.771V22.0002C21.1644 22.0002 25.2726 21.2904 28.3786 20.0016C31.7595 18.5987 33.6214 16.6266 33.6214 14.4484V14.3448L32.0376 6.90067Z" fill="#4D98CB"/>
<path class="p-D6702B" d="M10.3094 6.5681C11.0348 6.5681 11.6228 5.9801 11.6228 5.25475C11.6228 4.52941 11.0348 3.94141 10.3094 3.94141C9.5841 3.94141 8.99609 4.52941 8.99609 5.25475C8.99609 5.9801 9.5841 6.5681 10.3094 6.5681Z" fill="#4D98CB"/>
<path class="p-D6702B" d="M14.5126 8.80052C15.2379 8.80052 15.8259 8.21252 15.8259 7.48718C15.8259 6.76183 15.2379 6.17383 14.5126 6.17383C13.7872 6.17383 13.1992 6.76183 13.1992 7.48718C13.1992 8.21252 13.7872 8.80052 14.5126 8.80052Z" fill="#4D98CB"/>
<path class="p-E08344" d="M19.8973 5.96654C20.6227 5.96654 21.2107 5.37853 21.2107 4.65319C21.2107 3.92785 20.6227 3.33984 19.8973 3.33984C19.172 3.33984 18.584 3.92785 18.584 4.65319C18.584 5.37853 19.172 5.96654 19.8973 5.96654Z" fill="#65B3E7"/>
<path class="p-E08344" d="M23.9686 8.46214C24.694 8.46214 25.282 7.87414 25.282 7.1488C25.282 6.42345 24.694 5.83545 23.9686 5.83545C23.2433 5.83545 22.6553 6.42345 22.6553 7.1488C22.6553 7.87414 23.2433 8.46214 23.9686 8.46214Z" fill="#65B3E7"/>
</svg>

<svg width="34" height="22" fill="none" xmlns="http://www.w3.org/2000/svg"><path class="p-E08344" d="M26.32.921c-.837 0-2.526 1.15-3.186 1.567-.526.333-1.214 1.13-1.61.649C20.406 1.777 18.71 0 16.811 0s-3.594 1.776-4.713 3.137c-.395.48-1.993-1.225-2.519-1.557A4.247 4.247 0 007.302.92c-2.359 0-3.362 1.912-3.362 4.27v6.161h25.742v-6.16c0-2.359-1.003-4.27-3.361-4.27z" fill="#B9DFFC"/><path class="p-D6702B" d="M26.32.921c-.837 0-2.527 1.15-3.186 1.567a1.23 1.23 0 01-1.61-.26A6.087 6.087 0 0016.81 0v11.352h12.87v-6.16c0-2.359-1.003-4.27-3.36-4.27z" fill="#A1D1FD"/><path class="p-00C3FF" d="M29.682 5.19c0 1.332-1.274 2.7-3.495 3.753-2.488 1.179-5.818 1.828-9.376 1.828s-6.888-.65-9.376-1.828C5.214 7.89 3.94 6.522 3.94 5.189a2.176 2.176 0 00-2.356 1.712L0 14.345v.103c0 2.179 1.862 4.15 5.243 5.554C8.349 21.29 12.457 22 16.81 22c4.354 0 8.462-.71 11.568-1.998 3.38-1.403 5.243-3.375 5.243-5.554v-.103L32.038 6.9a2.176 2.176 0 00-2.356-1.712z" fill="#58ADE5"/><path class="p-00AAF0" d="M32.038 6.9a2.176 2.176 0 00-2.357-1.71c0 1.332-1.274 2.7-3.495 3.753-2.488 1.179-5.817 1.828-9.375 1.828v11.23c4.353 0 8.462-.71 11.568-2 3.38-1.402 5.242-3.374 5.242-5.553v-.103L32.038 6.9z" fill="#4D98CB"/><path class="p-D6702B" d="M10.31 6.568a1.313 1.313 0 100-2.627 1.313 1.313 0 000 2.627zM14.513 8.8a1.313 1.313 0 100-2.626 1.313 1.313 0 000 2.627z" fill="#4D98CB"/><path class="p-E08344" d="M19.897 5.967a1.313 1.313 0 100-2.627 1.313 1.313 0 000 2.627zM23.969 8.462a1.313 1.313 0 100-2.627 1.313 1.313 0 000 2.627z" fill="#65B3E7"/></svg>
